X: 21431
T: CALIFORNIA HORNPIPE
C: By James Hill, Newcastle
R: hornpipe
B: K\"ohler's Violin Repository, v.2, 1885 p.143 #1
F: http://www.archive.org/details/klersviolinrepos02rugg
Z: 2012 John Chambers <jc:trillian.mit.edu>
M: C|
L: 1/8
K: A
uE2 |\
A>(GA)>B (A/B/c/d/) e>g | (a>g)b>a (g>f)e>d | (c>e)c>A (B>d)B>G | A>(G B/A/G/F/) E2F>G |
A>(GA)>B (A/B/c/d/) e>g | (a>g)b>a (g>f)e>d | (3cde (3dcB (3ABc (3BAG | (3AGF (3EFG A2 :|
|: u(G>A) |\
B2(d>c) (3BcA (3GAF | F2e2 (3efd (3cdB | A2a>g f>e^d>f | {f}e>^de>f e2G>A |
(3BGE (3cAF (3dBG (3ecA | (3fdB (3gec a2(g>f) | (3eag (3fed (3cfe (3dcB | (3AGF (3EFG A2 :|

%%sep 2 1 500

